!! 00000] TT[WS
!!!OTL: Liusanr tuiche
!!!ARE: Asia, China,ÿShanxi Taiyuan
!! Ethnic Group: Han
!! WI, 189 (1)
!!!SCT: J0225
!!!YEM: Copyright 1995, estate of Helmut Schaffrath.
**kern
*ICvox
*Ivox
*M2/4
*k[f#]
*G:
{4dd
4dd
=1
8gg
8ee
4dd
=2
8dd
4a
8cc
=3
8b
8dd
4a}
=4
{8.dd
16dd
8g
8a
=5
4dd
8gg
8ee
=6
4dd
8g
8a
=7
8dd
4g
8b
=8
8a
8g
4d}
=9
{8.g
16g
4d
=10
8r
4dd
8ee
=11
4dd
8a
8b
=12
8a
8g
4d}
=13
{8.dd
16dd
8g
8a
=14
4dd
8gg
8ee
=15
4dd
8g
8a
=16
8.cc
16cc
8b
8a
=17
8g
4.d}
=18
{8.g
16g
8g
8b
=19
8a
8g
4d}
=20
{8.dd
16dd
8g
8a
=21
4dd
8gg
8ee
=22
4dd
8g
8a
=23
8.cc
16cc
8b
8a
=24
8g
4.d}
==
!!!AGN: Xiaodiao. Fengsuge, Qingge
!!!ONB: ESAC (Essen Associative Code) Database: CHINA
!!!AMT: simple duple
!!!AIN: vox
!!!EED: Helmut Schaffrath
!!!EEV: 1.0
*-
